src/img/social-icons/vk.svg

<svg width="40" height="40" viewBox="0 0 40 40" fill="none" xmlns="http://www.w3.org/2000/svg">
<g clip-path="url(#clip0)">
<path d="M39.788 29.1995C39.7395 29.0951 39.6944 29.0085 39.6524 28.9391C38.9584 27.6892 37.6322 26.155 35.6746 24.3361L35.6332 24.2945L35.6125 24.2741L35.5916 24.2531H35.5706C34.6821 23.4062 34.1195 22.8367 33.8839 22.5451C33.4527 21.9897 33.3562 21.4275 33.5918 20.8579C33.7582 20.4275 34.3835 19.5186 35.4662 18.13C36.0357 17.394 36.4867 16.8042 36.8197 16.3598C39.2219 13.1663 40.2633 11.1256 39.9438 10.2369L39.8198 10.0292C39.7364 9.90419 39.5212 9.78981 39.1745 9.6855C38.827 9.5814 38.3828 9.56419 37.8412 9.63356L31.8434 9.67499C31.7462 9.64056 31.6075 9.64377 31.4267 9.6855C31.2462 9.72722 31.1559 9.74816 31.1559 9.74816L31.0515 9.80031L30.9686 9.86297C30.8992 9.9044 30.8228 9.97728 30.7394 10.0814C30.6565 10.1852 30.5871 10.3071 30.5317 10.4459C29.8787 12.1259 29.1362 13.6878 28.303 15.1317C27.7892 15.9927 27.3174 16.7388 26.8865 17.3706C26.4562 18.0022 26.0952 18.4675 25.8039 18.7658C25.5121 19.0643 25.2488 19.3035 25.0123 19.4842C24.7762 19.665 24.5959 19.7413 24.4711 19.7134C24.346 19.6855 24.2282 19.6577 24.1167 19.63C23.9224 19.505 23.7662 19.335 23.6483 19.1198C23.53 18.9046 23.4504 18.6337 23.4087 18.3075C23.3673 17.981 23.3428 17.7001 23.3358 17.464C23.3293 17.2282 23.3323 16.8946 23.3464 16.4642C23.3608 16.0336 23.3673 15.7423 23.3673 15.5895C23.3673 15.0618 23.3776 14.4891 23.3982 13.8713C23.4192 13.2535 23.4362 12.7639 23.4504 12.4033C23.4646 12.0423 23.4712 11.6603 23.4712 11.2577C23.4712 10.855 23.4467 10.5392 23.3982 10.3101C23.3504 10.0811 23.2769 9.85896 23.1801 9.64355C23.0827 9.42836 22.9402 9.2619 22.7532 9.14373C22.5658 9.02571 22.3328 8.93205 22.0555 8.86246C21.3196 8.69592 20.3825 8.60584 19.2437 8.59183C16.6614 8.56411 15.0021 8.73086 14.2662 9.09187C13.9747 9.2444 13.7108 9.4528 13.4749 9.71642C13.2249 10.022 13.1901 10.1887 13.3705 10.2162C14.2037 10.341 14.7935 10.6395 15.1407 11.1116L15.2658 11.3617C15.3631 11.5422 15.4603 11.8617 15.5575 12.3198C15.6546 12.7779 15.7173 13.2846 15.7448 13.8397C15.8141 14.8534 15.8141 15.7212 15.7448 16.4431C15.6753 17.1652 15.6097 17.7274 15.547 18.1301C15.4843 18.5327 15.3907 18.859 15.2658 19.1088C15.1407 19.3587 15.0575 19.5115 15.0157 19.5669C14.9741 19.6224 14.9394 19.6573 14.9118 19.671C14.7313 19.7402 14.5436 19.7754 14.3494 19.7754C14.1548 19.7754 13.9189 19.6781 13.6413 19.4836C13.3638 19.2892 13.0757 19.022 12.7771 18.6818C12.4786 18.3415 12.1419 17.866 11.7668 17.2552C11.3921 16.6443 11.0033 15.9224 10.6007 15.0893L10.2675 14.4852C10.0593 14.0966 9.77478 13.5306 9.41378 12.788C9.05255 12.045 8.73327 11.3264 8.45572 10.6322C8.34477 10.3406 8.17809 10.1186 7.95597 9.9659L7.85173 9.90324C7.78244 9.8478 7.67119 9.78893 7.51859 9.7262C7.36577 9.66354 7.20632 9.6186 7.03956 9.59096L1.33314 9.63239C0.750021 9.63239 0.354367 9.76449 0.146036 10.0283L0.0626598 10.1531C0.0210082 10.2227 0 10.3337 0 10.4865C0 10.6393 0.0416516 10.8267 0.125028 11.0487C0.95806 13.0065 1.86397 14.8947 2.84274 16.7135C3.82152 18.5323 4.67206 19.9974 5.39385 21.1075C6.11579 22.2184 6.85166 23.2668 7.60146 24.2523C8.35126 25.2382 8.84758 25.87 9.09041 26.1475C9.33354 26.4256 9.52451 26.6335 9.66332 26.7723L10.1841 27.272C10.5173 27.6053 11.0066 28.0045 11.6522 28.4695C12.298 28.9348 13.013 29.3929 13.7974 29.8445C14.582 30.2954 15.4948 30.6633 16.5362 30.9479C17.5775 31.2327 18.591 31.347 19.5768 31.2919H21.9719C22.4577 31.25 22.8257 31.0972 23.0758 30.8336L23.1587 30.7292C23.2144 30.6463 23.2666 30.5176 23.3147 30.3443C23.3634 30.1708 23.3876 29.9796 23.3876 29.7716C23.3734 29.1747 23.4189 28.6368 23.5227 28.1578C23.6265 27.679 23.7449 27.318 23.8772 27.0749C24.0094 26.832 24.1587 26.627 24.3248 26.4608C24.4912 26.2943 24.6098 26.1934 24.6794 26.1587C24.7486 26.1237 24.8038 26.1 24.8455 26.0858C25.1787 25.9748 25.5708 26.0823 26.0225 26.4089C26.4738 26.7352 26.8971 27.138 27.2931 27.6168C27.6888 28.0961 28.1642 28.6338 28.7195 29.2307C29.2751 29.8278 29.7609 30.2717 30.1773 30.5637L30.5937 30.8136C30.8717 30.9803 31.2327 31.1331 31.6771 31.2719C32.1207 31.4107 32.5093 31.4454 32.8431 31.376L38.1744 31.2928C38.7017 31.2928 39.112 31.2055 39.4031 31.0323C39.6947 30.8587 39.868 30.6676 39.9239 30.4596C39.9796 30.2514 39.9826 30.0152 39.9344 29.7511C39.885 29.4877 39.8364 29.3036 39.788 29.1995Z" fill="white"/>
</g>
<defs>
<clipPath id="clip0">
<rect width="40" height="40" fill="white"/>
</clipPath>
</defs>
</svg>

<svg width="40" height="40" fill="none" xmlns="http://www.w3.org/2000/svg"><g clip-path="url(#clip0)"><path d="M39.788 29.2a2.744 2.744 0 0 0-.136-.26c-.694-1.25-2.02-2.785-3.977-4.604l-.042-.041-.02-.02-.021-.022h-.021c-.889-.847-1.451-1.416-1.687-1.708-.431-.555-.528-1.118-.292-1.687.166-.43.791-1.34 1.874-2.728.57-.736 1.02-1.326 1.354-1.77 2.402-3.194 3.443-5.234 3.124-6.123l-.124-.208c-.084-.125-.299-.24-.645-.344-.348-.104-.792-.12-1.334-.051l-5.998.041c-.097-.034-.235-.031-.416.01l-.271.063-.104.052-.083.063a.927.927 0 0 0-.23.218 1.43 1.43 0 0 0-.207.365 34.013 34.013 0 0 1-2.229 4.686 44.385 44.385 0 0 1-1.416 2.239c-.43.631-.792 1.097-1.083 1.395a7.563 7.563 0 0 1-.792.718c-.236.181-.416.257-.54.23a15.118 15.118 0 0 1-.355-.084 1.385 1.385 0 0 1-.469-.51 2.287 2.287 0 0 1-.24-.813 8.964 8.964 0 0 1-.072-.843c-.007-.236-.004-.57.01-1 .015-.43.021-.722.021-.874 0-.528.01-1.1.031-1.719.021-.617.038-1.107.052-1.468.015-.36.021-.743.021-1.145 0-.403-.024-.719-.073-.948a3.237 3.237 0 0 0-.218-.666 1.122 1.122 0 0 0-.427-.5 2.407 2.407 0 0 0-.698-.282c-.735-.166-1.672-.256-2.811-.27-2.583-.028-4.242.139-4.978.5-.291.152-.555.36-.791.624-.25.306-.285.473-.104.5.833.125 1.422.424 1.77.896l.125.25c.097.18.194.5.291.958.098.458.16.965.188 1.52.07 1.013.07 1.881 0 2.603-.07.722-.135 1.284-.198 1.687s-.156.729-.281.979a4.11 4.11 0 0 1-.25.458.357.357 0 0 1-.104.104 1.56 1.56 0 0 1-.563.104c-.194 0-.43-.097-.708-.291a4.997 4.997 0 0 1-.864-.802c-.298-.34-.635-.816-1.01-1.427A24.886 24.886 0 0 1 10.6 15.09l-.334-.604a52.072 52.072 0 0 1-.853-1.697 32.737 32.737 0 0 1-.958-2.156 1.372 1.372 0 0 0-.5-.666l-.104-.063a1.425 1.425 0 0 0-.333-.177 2.21 2.21 0 0 0-.48-.135l-5.706.041c-.583 0-.979.132-1.187.396l-.083.125c-.042.07-.063.18-.063.333 0 .153.042.34.125.563a68.737 68.737 0 0 0 2.718 5.665c.979 1.818 1.83 3.283 2.55 4.394A51.885 51.885 0 0 0 7.6 24.253c.75.986 1.247 1.618 1.49 1.896.243.278.434.486.572.624l.521.5c.333.333.823.733 1.468 1.198.646.465 1.361.923 2.145 1.375.785.45 1.698.818 2.74 1.103a9.461 9.461 0 0 0 3.04.344h2.395c.486-.042.854-.195 1.104-.458l.083-.105a1.38 1.38 0 0 0 .156-.385c.048-.173.073-.364.073-.572a6.868 6.868 0 0 1 .135-1.614c.104-.479.222-.84.354-1.083.132-.243.282-.448.448-.614.166-.167.285-.268.354-.302.07-.035.125-.059.167-.073.333-.111.725-.004 1.177.323.45.326.874.729 1.27 1.208.396.48.871 1.017 1.427 1.614.555.597 1.04 1.04 1.457 1.333l.417.25c.278.166.639.32 1.083.458.444.139.832.173 1.166.104l5.331-.083c.528 0 .938-.087 1.23-.26.29-.174.464-.365.52-.573a1.6 1.6 0 0 0 .01-.709 2.653 2.653 0 0 0-.146-.552z" fill="#fff"/></g><defs><clipPath id="clip0"><path fill="#fff" d="M0 0h40v40H0z"/></clipPath></defs></svg>
